;FLAVOR:Marlin
;TIME:11512
;Filament used: 4.23072m
;Layer height: 0.12
;MINX:54.201
;MINY:58.201
;MINZ:0.12
;MAXX:174.799
;MAXY:178.799
;MAXZ:3.6
;Generated with Cura_SteamEngine 5.2.1
M140 S50
M105
M190 S50
M104 S200
M105
M109 S200
M82 ;absolute extrusion mode
; Ender 3 Custom Start G-code
G92 E0 ; Reset Extruder
G28 ; Home all axes
G1 Z2.0 F3000 ; Move Z Axis up little to prevent scratching of Heat Bed
G1 X0.1 Y20 Z0.3 F5000.0 ; Move to start position
G1 X0.1 Y200.0 Z0.3 F1500.0 E15 ; Draw the first line
G1 X0.4 Y200.0 Z0.3 F5000.0 ; Move to side a little
G1 X0.4 Y20 Z0.3 F1500.0 E30 ; Draw the second line
G92 E0 ; Reset Extruder
G1 Z2.0 F3000 ; Move Z Axis up little to prevent scratching of Heat Bed
G1 X5 Y20 Z0.3 F5000.0 ; Move over to prevent blob squish
G92 E0
G92 E0
G1 F2700 E-5
;LAYER_COUNT:30
;LAYER:0
M107
;MESH:6SD+12MicroSD_in_CD.stl
G0 F6000 X81.713 Y96.321 Z0.12
;TYPE:WALL-INNER
G1 F2700 E0
G1 F1200 X80.881 Y96.322 E0.0166
G1 X80.066 Y96.187 E0.03309
G1 X79.283 Y95.919 E0.0496
G1 X78.562 Y95.531 E0.06594
G1 X77.91 Y95.024 E0.08243
G1 X77.343 Y94.415 E0.09903
G1 X76.884 Y93.706 E0.11589
G1 X76.552 Y92.953 E0.13231
G1 X76.356 Y92.16 E0.14861
G1 X76.291 Y91.418 E0.16347
G1 X76.291 Y89.251 E0.20672
G1 X76.353 Y88.509 E0.22158
G1 X76.554 Y87.714 E0.23794
G1 X76.891 Y86.946 E0.25468
G1 X77.338 Y86.26 E0.27102
G1 X77.901 Y85.653 E0.28754
G1 X78.552 Y85.146 E0.30401
G1 X79.275 Y84.754 E0.32042
G1 X80.062 Y84.484 E0.33702
G1 X80.88 Y84.352 E0.35356
G1 X81.704 Y84.352 E0.37
G1 X81.784 Y84.362 E0.37161
G1 X82.525 Y84.485 E0.3866
G1 X83.305 Y84.754 E0.40307
G1 X84.035 Y85.15 E0.41964
G1 X84.681 Y85.658 E0.43604
G1 X85.246 Y86.266 E0.4526
G1 X85.701 Y86.972 E0.46937
G1 X86.027 Y87.717 E0.48559
G1 X86.222 Y88.494 E0.50158
G1 X86.292 Y89.284 E0.51741
G1 X86.294 Y91.335 E0.55834
G1 X86.228 Y92.163 E0.57491
G1 X86.021 Y92.964 E0.59142
G1 X85.696 Y93.708 E0.60763
G1 X85.254 Y94.389 E0.62383
G1 X84.673 Y95.023 E0.64099
G1 X84.021 Y95.529 E0.65746
G1 X83.316 Y95.91 E0.67345
G1 X82.534 Y96.183 E0.68998
G1 X81.713 Y96.321 E0.70659
G0 F6000 X81.649 Y95.922
G1 F1200 X80.887 Y95.918 E0.7218
G1 X80.152 Y95.796 E0.73667
G1 X79.417 Y95.537 E0.75222
G1 X78.772 Y95.19 E0.76684
G1 X78.161 Y94.708 E0.78237
G1 X77.646 Y94.149 E0.79754
G1 X77.238 Y93.52 E0.8125
G1 X76.944 Y92.849 E0.82712
G1 X76.75 Y92.101 E0.84254
G1 X76.69 Y91.385 E0.85688
G1 X76.69 Y89.285 E0.89878
G1 X76.748 Y88.58 E0.9129
G1 X76.934 Y87.843 E0.92807
G1 X77.233 Y87.162 E0.94291
G1 X77.65 Y86.512 E0.95832
G1 X78.173 Y85.949 E0.97366
G1 X78.772 Y85.482 E0.98882
G1 X79.441 Y85.12 E1.004
G1 X80.155 Y84.875 E1.01906
G1 X80.913 Y84.75 E1.03439
G1 X81.671 Y84.751 E1.04952
G1 X81.719 Y84.757 E1.05048
G1 X82.425 Y84.876 E1.06477
G1 X83.143 Y85.124 E1.07993
G1 X83.819 Y85.491 E1.09528
G1 X84.388 Y85.933 E1.10966
G1 X84.909 Y86.49 E1.12488
G1 X85.345 Y87.155 E1.14075
G1 X85.634 Y87.816 E1.15514
G1 X85.829 Y88.566 E1.17061
G1 X85.893 Y89.304 E1.18539
G1 X85.894 Y91.335 E1.22592
G1 X85.833 Y92.077 E1.24078
G1 X85.643 Y92.832 E1.25632
G1 X85.342 Y93.521 E1.27132
G1 X84.933 Y94.15 E1.28629
G1 X84.422 Y94.706 E1.30136
G1 X83.8 Y95.194 E1.31714
G1 X83.166 Y95.535 E1.33151
G1 X82.406 Y95.799 E1.34756
G1 X81.649 Y95.922 E1.36287
G0 F6000 X82.32 Y95.409
;TYPE:WALL-OUTER
G1 F1200 X81.63 Y95.522 E1.37682
G1 X80.929 Y95.52 E1.39081
G1 X80.24 Y95.403 E1.40476
G1 X79.585 Y95.174 E1.4186
G1 X79.007 Y94.862 E1.43171
G1 X78.433 Y94.414 E1.44624
G1 X77.98 Y93.926 E1.45953
G1 X77.592 Y93.334 E1.47365
G1 X77.317 Y92.705 E1.48735
G1 X77.148 Y92.045 E1.50095
G1 X77.088 Y91.352 E1.51483
G1 X77.088 Y89.318 E1.55542
G1 X77.143 Y88.658 E1.56864
G1 X77.32 Y87.957 E1.58307
G1 X77.591 Y87.341 E1.5965
G1 X77.982 Y86.742 E1.61077
G1 X78.433 Y86.256 E1.624
G1 X79.007 Y85.81 E1.63851
G1 X79.615 Y85.483 E1.65229
G1 X80.24 Y85.268 E1.66548
G1 X80.945 Y85.149 E1.67974
G1 X81.653 Y85.151 E1.69387
G1 X82.342 Y85.268 E1.70782
G1 X82.967 Y85.484 E1.72102
G1 X83.594 Y85.822 E1.73523
G1 X84.136 Y86.244 E1.74894
G1 X84.604 Y86.749 E1.76268
G1 X84.983 Y87.327 E1.77647
G1 X85.265 Y87.97 E1.79048
G1 X85.435 Y88.638 E1.80424
G1 X85.493 Y89.318 E1.81786
G1 X85.493 Y91.352 E1.85845
G1 X85.437 Y92.023 E1.87189
G1 X85.265 Y92.7 E1.88583
G1 X84.988 Y93.334 E1.89963
G1 X84.612 Y93.911 E1.91338
G1 X84.142 Y94.42 E1.9272
G1 X83.573 Y94.862 E1.94158
G1 X82.988 Y95.177 E1.95484
G1 X82.32 Y95.409 E1.96895
G1 F2700 E-3.03105
G0 F6000 X82.434 Y96.098
G0 X80.962 Y96.503
G0 X79.161 Y103.813
G0 X80.672 Y105.896
G0 X80.992 Y106.628
G0 X81.191 Y107.404
G0 X81.253 Y108.167
G0 X81.253 Y110.235
G0 X81.191 Y110.998
G0 X80.992 Y111.774
G0 X80.672 Y112.506
G0 X80.234 Y113.175
G0 X79.694 Y113.764
G0 X79.181 Y114.161
G0 X77.643 Y115.049
;TYPE:WALL-INNER
G1 F2700 E1.96895
G1 F1200 X76.822 Y115.184 E1.98556
G1 X76 Y115.188 E2.00196
G1 X75.179 Y115.049 E2.01858
G1 X74.402 Y114.784 E2.03496
G1 X73.676 Y114.393 E2.05142
G1 X73.022 Y113.884 E2.06795
G1 X72.465 Y113.277 E2.08439
G1 X72.011 Y112.585 E2.10091
G1 X71.679 Y111.826 E2.11744
G1 X71.475 Y111.028 E2.13388
G1 X71.411 Y110.284 E2.14878
G1 X71.41 Y108.118 E2.19201
G1 X71.475 Y107.374 E2.20691
G1 X71.68 Y106.575 E2.22337
G1 X72.011 Y105.817 E2.23988
G1 X72.454 Y105.131 E2.25617
G1 X73.024 Y104.517 E2.27289
G1 X73.673 Y104.011 E2.28932
G1 X74.396 Y103.621 E2.30571
G1 X75.171 Y103.352 E2.32208
G1 X75.992 Y103.216 E2.33869
G1 X76.812 Y103.214 E2.35505
G1 X77.637 Y103.349 E2.37173
G1 X78.421 Y103.619 E2.38828
G1 X79.141 Y104.007 E2.4046
G1 X79.791 Y104.509 E2.42099
G1 X80.356 Y105.12 E2.4376
G1 X80.814 Y105.825 E2.45438
G1 X81.145 Y106.586 E2.47094
G1 X81.35 Y107.372 E2.48715
G1 X81.411 Y108.119 E2.50211
G1 X81.413 Y110.27 E2.54503
G1 X81.346 Y111.034 E2.56034
G1 X81.145 Y111.828 E2.57668
G1 X80.818 Y112.569 E2.59284
G1 X80.368 Y113.269 E2.60945
G1 X79.792 Y113.891 E2.62637
G1 X79.153 Y114.385 E2.64249
G1 X78.494 Y114.744 E2.65746
G1 X78.341 Y114.811 E2.6608
G1 X77.643 Y115.049 E2.67551
G0 F6000 X77.544 Y114.661
G1 F1200 X76.789 Y114.786 E2.69079
G1 X76.028 Y114.788 E2.70597
G1 X75.278 Y114.661 E2.72115
G1 X74.562 Y114.416 E2.73625
G1 X73.891 Y114.054 E2.75147
G1 X73.292 Y113.586 E2.76664
G1 X72.775 Y113.029 E2.7818
G1 X72.363 Y112.394 E2.79691
G1 X72.057 Y111.696 E2.81212
G1 X71.867 Y110.958 E2.82733
G1 X71.808 Y110.201 E2.84248
G1 X71.809 Y108.15 E2.88341
G1 X71.867 Y107.444 E2.89755
G1 X72.056 Y106.704 E2.91279
G1 X72.363 Y106.008 E2.92797
G1 X72.773 Y105.376 E2.943
G1 X73.292 Y104.815 E2.95825
G1 X73.891 Y104.351 E2.97337
G1 X74.573 Y103.984 E2.98883
G1 X75.299 Y103.736 E3.00414
G1 X76.053 Y103.615 E3.01938
G1 X76.813 Y103.619 E3.03455
G1 X77.546 Y103.739 E3.04937
G1 X78.282 Y103.999 E3.06495
G1 X78.948 Y104.362 E3.08008
G1 X79.541 Y104.827 E3.09512
G1 X80.047 Y105.375 E3.11001
G1 X80.461 Y106.013 E3.12518
G1 X80.766 Y106.712 E3.1404
G1 X80.954 Y107.449 E3.15558
G1 X81.013 Y108.152 E3.16966
G1 X81.013 Y110.25 E3.21153
G1 X80.952 Y110.965 E3.22585
G1 X80.767 Y111.692 E3.24082
G1 X80.464 Y112.384 E3.25589
G1 X80.026 Y113.05 E3.2718
G1 X79.54 Y113.576 E3.28609
G1 X78.933 Y114.051 E3.30147
G1 X78.304 Y114.392 E3.31575
G1 X78.21 Y114.433 E3.3178
G1 X77.544 Y114.661 E3.33185
G0 F6000 X77.461 Y114.269
;TYPE:WALL-OUTER
G1 F1200 X76.756 Y114.387 E3.34611
G1 X76.065 Y114.387 E3.3599
G1 X75.361 Y114.269 E3.37415
G1 X74.737 Y114.053 E3.38732
G1 X74.113 Y113.718 E3.40146
G1 X73.565 Y113.292 E3.41531
G1 X73.093 Y112.781 E3.42919
G1 X72.714 Y112.202 E3.443
G1 X72.435 Y111.565 E3.45688
G1 X72.264 Y110.895 E3.47068
G1 X72.208 Y110.218 E3.48423
G1 X72.208 Y108.182 E3.52487
G1 X72.264 Y107.507 E3.53838
G1 X72.436 Y106.837 E3.55219
G1 X72.706 Y106.215 E3.56572
G1 X73.082 Y105.635 E3.57951
G1 X73.565 Y105.11 E3.59375
G1 X74.113 Y104.684 E3.6076
G1 X74.71 Y104.361 E3.62115
G1 X75.394 Y104.125 E3.63558
G1 X76.083 Y104.014 E3.64951
G1 X76.739 Y104.014 E3.6626
G1 X77.461 Y104.133 E3.67721
G1 X78.114 Y104.362 E3.69101
G1 X78.718 Y104.689 E3.70472
G1 X79.261 Y105.113 E3.71847
G1 X79.72 Y105.61 E3.73197
G1 X80.108 Y106.201 E3.74608
G1 X80.38 Y106.822 E3.75961
G1 X80.558 Y107.51 E3.77379
G1 X80.614 Y108.184 E3.78729
G1 X80.614 Y110.218 E3.82788
G1 X80.558 Y110.896 E3.84145
G1 X80.38 Y111.58 E3.85556
G1 X80.109 Y112.199 E3.86904
G1 X79.731 Y112.778 E3.88284
G1 X79.261 Y113.289 E3.8967
G1 X78.713 Y113.717 E3.91057
G1 X78.114 Y114.04 E3.92415
G1 X77.461 Y114.269 E3.93796
G1 F2700 E-1.06204
G0 F6000 X77.687 Y114.929
G0 X76.81 Y115.026
G0 X76.012 Y115.026
G0 X75.373 Y114.921
G0 X73.042 Y114.128
G0 X66.439 Y114.127
G0 X64.302 Y115.049
;TYPE:WALL-INNER
G1 F2700 E3.93796
G1 F1200 X63.481 Y115.184 E3.95457
G1 X62.656 Y115.188 E3.97103
G1 X61.835 Y115.049 E3.98765
G1 X61.059 Y114.781 E4.00403
G1 X60.335 Y114.395 E4.02041
G1 X59.678 Y113.882 E4.03704
G1 X59.113 Y113.273 E4.05362
G1 X58.663 Y112.58 E4.07011
G1 X58.334 Y111.829 E4.08647
G1 X58.131 Y111.025 E4.10302
G1 X58.066 Y110.227 E4.119
G1 X58.069 Y108.117 E4.1611
G1 X58.129 Y107.383 E4.1758
G1 X58.333 Y106.573 E4.19247
G1 X58.664 Y105.819 E4.2089
G1 X59.117 Y105.124 E4.22546
G1 X59.678 Y104.52 E4.24191
G1 X60.334 Y104.008 E4.25851
G1 X61.057 Y103.619 E4.2749
G1 X61.831 Y103.351 E4.29124
G1 X62.655 Y103.215 E4.30791
G1 X63.482 Y103.215 E4.32441
G1 X64.306 Y103.351 E4.34108
G1 X65.006 Y103.593 E4.35586
G1 X65.154 Y103.659 E4.3591
G1 X65.811 Y104.015 E4.37401
G1 X66.451 Y104.517 E4.39024
G1 X67.015 Y105.125 E4.40679
G1 X67.47 Y105.814 E4.42327
G1 X67.8 Y106.575 E4.43982
G1 X68.003 Y107.374 E4.45627
G1 X68.069 Y108.119 E4.4712
G1 X68.072 Y110.201 E4.51275
G1 X68.006 Y111.033 E4.5294
G1 X67.8 Y111.826 E4.54575
G1 X67.467 Y112.585 E4.56229
G1 X67.021 Y113.276 E4.5787
G1 X66.451 Y113.885 E4.59535
G1 X65.807 Y114.386 E4.61163
G1 X65.084 Y114.778 E4.62805
G1 X64.302 Y115.049 E4.64456
G0 F6000 X64.203 Y114.661
G1 F1200 X63.448 Y114.786 E4.65983
G1 X62.684 Y114.788 E4.67508
G1 X61.934 Y114.661 E4.69026
G1 X61.216 Y114.415 E4.70541
G1 X60.551 Y114.056 E4.72049
G1 X59.953 Y113.59 E4.73562
G1 X59.433 Y113.029 E4.75088
G1 X59.018 Y112.392 E4.76605
G1 X58.712 Y111.695 E4.78124
G1 X58.526 Y110.955 E4.79647
G1 X58.467 Y110.251 E4.81057
G1 X58.468 Y108.151 E4.85248
G1 X58.526 Y107.444 E4.86663
G1 X58.713 Y106.706 E4.88183
G1 X59.018 Y106.01 E4.89699
G1 X59.433 Y105.373 E4.91216
G1 X59.953 Y104.812 E4.92743
G1 X60.551 Y104.346 E4.94256
G1 X61.218 Y103.986 E4.95768
G1 X61.934 Y103.738 E4.9728
G1 X62.684 Y103.615 E4.98797
G1 X63.454 Y103.615 E5.00334
G1 X64.204 Y103.741 E5.01851
G1 X64.875 Y103.971 E5.03267
G1 X64.964 Y104.011 E5.03462
G1 X65.587 Y104.348 E5.04875
G1 X66.188 Y104.816 E5.06395
G1 X66.701 Y105.373 E5.07906
G1 X67.115 Y106.008 E5.09419
G1 X67.422 Y106.706 E5.10941
G1 X67.611 Y107.444 E5.12461
G1 X67.672 Y108.201 E5.13977
G1 X67.672 Y110.201 E5.17968
G1 X67.61 Y110.966 E5.195
G1 X67.422 Y111.696 E5.21004
G1 X67.115 Y112.394 E5.22526
G1 X66.701 Y113.029 E5.24038
G1 X66.187 Y113.587 E5.25552
G1 X65.586 Y114.052 E5.27069
G1 X64.922 Y114.412 E5.28576
G1 X64.203 Y114.661 E5.30095
G0 F6000 X64.12 Y114.269
;TYPE:WALL-OUTER
G1 F1200 X63.415 Y114.387 E5.31521
G1 X62.721 Y114.387 E5.32906
G1 X62.017 Y114.269 E5.34331
G1 X61.363 Y114.04 E5.35713
G1 X60.785 Y113.728 E5.37024
G1 X60.211 Y113.28 E5.38477
G1 X59.739 Y112.767 E5.39868
G1 X59.364 Y112.187 E5.41247
G1 X59.098 Y111.58 E5.42569
G1 X58.921 Y110.878 E5.44014
G1 X58.866 Y110.218 E5.45336
G1 X58.866 Y108.184 E5.49395
G1 X58.925 Y107.496 E5.50773
G1 X59.098 Y106.822 E5.52161
G1 X59.364 Y106.215 E5.53484
G1 X59.739 Y105.635 E5.54862
G1 X60.211 Y105.122 E5.56253
G1 X60.785 Y104.674 E5.57706
G1 X61.393 Y104.349 E5.59082
G1 X62.017 Y104.133 E5.604
G1 X62.706 Y104.017 E5.61794
G1 X63.431 Y104.017 E5.63241
G1 X64.12 Y104.133 E5.64635
G1 X64.774 Y104.363 E5.66019
G1 X65.366 Y104.684 E5.67363
G1 X65.914 Y105.11 E5.68748
G1 X66.387 Y105.621 E5.70138
G1 X66.764 Y106.2 E5.71516
G1 X67.044 Y106.837 E5.72905
G1 X67.214 Y107.507 E5.74284
G1 X67.272 Y108.201 E5.75674
G1 X67.271 Y110.218 E5.79699
G1 X67.214 Y110.895 E5.81055
G1 X67.044 Y111.565 E5.82435
G1 X66.772 Y112.187 E5.83789
G1 X66.387 Y112.781 E5.85202
G1 X65.914 Y113.292 E5.86591
G1 X65.366 Y113.718 E5.87977
G1 X64.76 Y114.046 E5.89352
G1 X64.12 Y114.269 E5.90704
G1 F2700 E0.90704
G0 F6000 X64.346 Y114.929
G0 X63.596 Y115.352
G0 X63.594 Y121.383
G0 X65.717 Y122.481
G0 X66.349 Y122.971
G0 X66.892 Y123.56
G0 X67.329 Y124.23
G0 X67.65 Y124.962
G0 X67.847 Y125.738
G0 X67.91 Y126.5
G0 X67.91 Y128.568
G0 X67.847 Y129.331
G0 X67.65 Y130.107
G0 X67.329 Y130.839
G0 X66.891 Y131.508
G0 X66.453 Y131.985
G0 X65.078 Y133.117
;TYPE:WALL-INNER
G1 F2700 E5.90704
G1 F1200 X64.306 Y133.384 E5.92334
G1 X63.484 Y133.521 E5.93997
G1 X62.652 Y133.521 E5.95658
G1 X61.832 Y133.385 E5.97316
G1 X61.054 Y133.115 E5.9896
G1 X60.333 Y132.726 E6.00595
G1 X59.678 Y132.215 E6.02253
G1 X59.116 Y131.61 E6.03901
G1 X58.663 Y130.915 E6.05556
G1 X58.33 Y130.152 E6.07217
G1 X58.131 Y129.343 E6.0888
G1 X58.069 Y128.617 E6.10334
G1 X58.069 Y126.45 E6.14659
G1 X58.131 Y125.708 E6.16144
G1 X58.333 Y124.908 E6.17791
G1 X58.663 Y124.154 E6.19434
G1 X59.116 Y123.458 E6.21091
G1 X59.683 Y122.849 E6.22751
G1 X60.332 Y122.344 E6.24392
G1 X61.059 Y121.954 E6.26039
G1 X61.835 Y121.687 E6.27676
G1 X62.656 Y121.551 E6.29337
G1 X63.485 Y121.551 E6.30991
G1 X64.302 Y121.687 E6.32644
G1 X65.084 Y121.957 E6.34295
G1 X65.807 Y122.345 E6.35933
G1 X66.448 Y122.848 E6.37559
G1 X67.015 Y123.458 E6.39221
G1 X67.467 Y124.151 E6.40872
G1 X67.8 Y124.909 E6.42524
G1 X68.003 Y125.707 E6.44167
G1 X68.069 Y126.452 E6.4566
G1 X68.072 Y128.534 E6.49815
G1 X68.006 Y129.366 E6.5148
G1 X67.8 Y130.16 E6.53117
G1 X67.467 Y130.918 E6.54769
G1 X67.021 Y131.609 E6.56411
G1 X66.451 Y132.218 E6.58075
G1 X65.82 Y132.71 E6.59672
G1 X65.078 Y133.117 E6.61361
G0 F6000 X64.923 Y132.745
G1 F1200 X64.204 Y132.994 E6.62879
G1 X63.449 Y133.121 E6.64407
G1 X62.688 Y133.121 E6.65926
G1 X61.929 Y132.995 E6.67461
G1 X61.215 Y132.748 E6.68969
G1 X60.551 Y132.389 E6.70475
G1 X59.953 Y131.923 E6.71988
G1 X59.433 Y131.362 E6.73515
G1 X59.015 Y130.722 E6.7504
G1 X58.711 Y130.026 E6.76556
G1 X58.527 Y129.284 E6.78082
G1 X58.468 Y128.584 E6.79483
G1 X58.467 Y126.484 E6.83674
G1 X58.526 Y125.778 E6.85088
G1 X58.713 Y125.036 E6.86615
G1 X59.02 Y124.339 E6.88135
G1 X59.429 Y123.71 E6.89632
G1 X59.951 Y123.148 E6.91163
G1 X60.551 Y122.681 E6.9268
G1 X61.219 Y122.321 E6.94194
G1 X61.934 Y122.075 E6.95703
G1 X62.683 Y121.948 E6.97219
G1 X63.451 Y121.95 E6.98752
G1 X64.203 Y122.075 E7.00273
G1 X64.919 Y122.319 E7.01783
G1 X65.588 Y122.682 E7.03302
G1 X66.18 Y123.144 E7.048
G1 X66.701 Y123.706 E7.0633
G1 X67.116 Y124.343 E7.07847
G1 X67.422 Y125.04 E7.09366
G1 X67.611 Y125.775 E7.10881
G1 X67.672 Y126.534 E7.124
G1 X67.672 Y128.534 E7.16391
G1 X67.61 Y129.302 E7.17929
G1 X67.422 Y130.029 E7.19427
G1 X67.115 Y130.727 E7.20949
G1 X66.701 Y131.362 E7.22462
G1 X66.187 Y131.92 E7.23976
G1 X65.594 Y132.38 E7.25474
G1 X64.923 Y132.745 E7.26998
G0 F6000 X64.12 Y132.602
;TYPE:WALL-OUTER
G1 F1200 X63.431 Y132.719 E7.28393
G1 X62.706 Y132.719 E7.29839
G1 X62.017 Y132.602 E7.31234
G1 X61.363 Y132.373 E7.32617
G1 X60.785 Y132.061 E7.33928
G1 X60.211 Y131.613 E7.35381
G1 X59.739 Y131.1 E7.36772
G1 X59.364 Y130.52 E7.3815
G1 X59.098 Y129.913 E7.39473
G1 X58.923 Y129.225 E7.40889
G1 X58.866 Y128.551 E7.42239
G1 X58.866 Y126.517 E7.46298
G1 X58.921 Y125.857 E7.4762
G1 X59.088 Y125.187 E7.48998
G1 X59.364 Y124.549 E7.50385
G1 X59.739 Y123.968 E7.51765
G1 X60.211 Y123.455 E7.53156
G1 X60.785 Y123.009 E7.54607
G1 X61.379 Y122.688 E7.55954
G1 X62.017 Y122.467 E7.57302
G1 X62.721 Y122.348 E7.58727
G1 X63.416 Y122.348 E7.60114
G1 X64.125 Y122.468 E7.61549
G1 X64.744 Y122.682 E7.62856
G1 X65.37 Y123.02 E7.64275
G1 X65.912 Y123.441 E7.65645
G1 X66.387 Y123.954 E7.6704
G1 X66.764 Y124.534 E7.68421
G1 X67.044 Y125.171 E7.69809
G1 X67.214 Y125.84 E7.71187
G1 X67.272 Y126.534 E7.72576
G1 X67.271 Y128.551 E7.76602
G1 X67.214 Y129.229 E7.77959
G1 X67.044 Y129.898 E7.79337
G1 X66.772 Y130.52 E7.80692
G1 X66.387 Y131.114 E7.82104
G1 X65.914 Y131.625 E7.83494
G1 X65.368 Y132.05 E7.84875
G1 X64.76 Y132.379 E7.86254
